img/logo.svg

<svg width="89" height="60" viewBox="0 0 89 60" fill="none" xmlns="http://www.w3.org/2000/svg">
<g clip-path="url(#clip0_1_54)">
<path d="M59.7362 30.2269H28.2678C28.1585 30.2269 28.07 30.3155 28.07 30.4248V33.0105C28.07 33.1197 28.1585 33.2083 28.2678 33.2083H59.7362C59.8455 33.2083 59.9341 33.1197 59.9341 33.0105V30.4248C59.9341 30.3155 59.8455 30.2269 59.7362 30.2269Z" fill="white"/>
<path d="M58.4385 28.2794H29.5616C29.4523 28.2794 29.3638 28.368 29.3638 28.4773V29.7692C29.3638 29.8784 29.4523 29.967 29.5616 29.967H58.4385C58.5478 29.967 58.6364 29.8784 58.6364 29.7692V28.4773C58.6364 28.368 58.5478 28.2794 58.4385 28.2794Z" fill="white"/>
<path d="M57.1544 2.97362H30.9291C30.8177 2.97362 30.7274 3.06394 30.7274 3.17535V4.24609C30.7274 4.3575 30.8177 4.44782 30.9291 4.44782H57.1544C57.2658 4.44782 57.3561 4.3575 57.3561 4.24609V3.17535C57.3561 3.06394 57.2658 2.97362 57.1544 2.97362Z" fill="white"/>
<path d="M30.5373 2.6749C30.5664 2.71563 30.613 2.74085 30.6634 2.74085H57.4182C57.4686 2.74085 57.5152 2.71563 57.5443 2.6749L59.1291 0.333635C59.226 0.192034 59.1232 -0.00193977 58.9506 -0.00193977H29.1291C28.9564 -0.00193977 28.8556 0.190094 28.9506 0.333635L30.5354 2.6749H30.5373Z" fill="white"/>
<path d="M32.316 28.0234H38.5077C38.7463 28.0234 38.9403 27.8294 38.9403 27.5908C38.9403 27.3523 38.7463 27.1583 38.5077 27.1583H32.316C32.0775 27.1583 31.8835 27.3523 31.8835 27.5908C31.8835 27.8294 32.0775 28.0234 32.316 28.0234Z" fill="white"/>
<path d="M32.8534 26.491C32.8534 26.7296 33.0473 26.9236 33.2859 26.9236H37.4913C37.7299 26.9236 37.9238 26.7296 37.9238 26.491C37.9238 26.2524 37.7299 26.0584 37.4913 26.0584H33.2859C33.0473 26.0584 32.8534 26.2524 32.8534 26.491Z" fill="white"/>
<path d="M38.917 5.09569C38.917 4.85711 38.723 4.66313 38.4844 4.66313H32.2928C32.0542 4.66313 31.8602 4.85711 31.8602 5.09569C31.8602 5.33428 32.0542 5.52825 32.2928 5.52825H38.4844C38.723 5.52825 38.917 5.33428 38.917 5.09569Z" fill="white"/>
<path d="M37.5029 5.76296H33.2976C33.059 5.76296 32.865 5.95694 32.865 6.19552C32.865 6.43411 33.059 6.62809 33.2976 6.62809H37.5029C37.7415 6.62809 37.9355 6.43411 37.9355 6.19552C37.9355 5.95694 37.7415 5.76296 37.5029 5.76296Z" fill="white"/>
<path d="M37.4311 25.8393C37.5689 25.8393 37.6775 25.7268 37.6736 25.589L37.1596 7.10138C37.1557 6.95978 37.0393 6.84728 36.8977 6.84728H33.7922C33.6486 6.84728 33.5323 6.96172 33.5303 7.10332L33.1269 25.591C33.1249 25.7268 33.2335 25.8393 33.3693 25.8393H37.4311ZM36.4438 7.5417C36.5136 7.5417 36.5699 7.59602 36.5718 7.66585L36.7386 24.9819C36.7386 25.0517 36.6843 25.108 36.6145 25.1099C36.5447 25.1099 36.4884 25.0556 36.4865 24.9858L36.3197 7.66973C36.3197 7.5999 36.374 7.54364 36.4438 7.5417ZM35.2683 7.66779C35.2683 7.59796 35.3246 7.5417 35.3944 7.5417C35.4642 7.5417 35.5205 7.59796 35.5205 7.66779V24.9838C35.5205 25.0537 35.4642 25.1099 35.3944 25.1099C35.3246 25.1099 35.2683 25.0537 35.2683 24.9838V7.66973V7.66779ZM34.217 7.66779C34.217 7.59796 34.2752 7.5417 34.345 7.54364C34.4148 7.54364 34.4711 7.60184 34.4692 7.67167L34.3023 24.9877C34.3023 25.0575 34.2441 25.1138 34.1743 25.1119C34.1045 25.1099 34.0482 25.0537 34.0502 24.9838L34.217 7.66779Z" fill="white"/>
<path d="M40.9285 28.0234H47.1201C47.3587 28.0234 47.5527 27.8294 47.5527 27.5908C47.5527 27.3523 47.3587 27.1583 47.1201 27.1583H40.9285C40.6899 27.1583 40.4959 27.3523 40.4959 27.5908C40.4959 27.8294 40.6899 28.0234 40.9285 28.0234Z" fill="white"/>
<path d="M41.4658 26.491C41.4658 26.7296 41.6598 26.9236 41.8984 26.9236H46.1037C46.3423 26.9236 46.5363 26.7296 46.5363 26.491C46.5363 26.2524 46.3423 26.0584 46.1037 26.0584H41.8984C41.6598 26.0584 41.4658 26.2524 41.4658 26.491Z" fill="white"/>
<path d="M47.5294 5.09569C47.5294 4.85711 47.3354 4.66313 47.0969 4.66313H40.9052C40.6666 4.66313 40.4726 4.85711 40.4726 5.09569C40.4726 5.33428 40.6666 5.52825 40.9052 5.52825H47.0969C47.3354 5.52825 47.5294 5.33428 47.5294 5.09569Z" fill="white"/>
<path d="M46.1153 5.76296H41.91C41.6714 5.76296 41.4774 5.95694 41.4774 6.19552C41.4774 6.43411 41.6714 6.62809 41.91 6.62809H46.1153C46.3539 6.62809 46.5479 6.43411 46.5479 6.19552C46.5479 5.95694 46.3539 5.76296 46.1153 5.76296Z" fill="white"/>
<path d="M46.0436 25.8393C46.1813 25.8393 46.2899 25.7268 46.286 25.589L45.772 7.10138C45.7681 6.95978 45.6518 6.84728 45.5102 6.84728H42.4046C42.2611 6.84728 42.1447 6.96172 42.1428 7.10332L41.7393 25.591C41.7374 25.7268 41.846 25.8393 41.9818 25.8393H46.0436ZM45.0563 7.5417C45.1261 7.5417 45.1823 7.59602 45.1843 7.66585L45.3511 24.9819C45.3511 25.0517 45.2968 25.108 45.227 25.1099C45.1571 25.1099 45.1009 25.0556 45.0989 24.9858L44.9321 7.66973C44.9321 7.5999 44.9864 7.54364 45.0563 7.5417ZM43.8808 7.66779C43.8808 7.59796 43.937 7.5417 44.0069 7.5417C44.0767 7.5417 44.1329 7.59796 44.1329 7.66779V24.9838C44.1329 25.0537 44.0767 25.1099 44.0069 25.1099C43.937 25.1099 43.8808 25.0537 43.8808 24.9838V7.66973V7.66779ZM42.8294 7.66779C42.8294 7.59796 42.8876 7.5417 42.9575 7.54364C43.0273 7.54364 43.0835 7.60184 43.0816 7.67167L42.9148 24.9877C42.9148 25.0575 42.8566 25.1138 42.7868 25.1119C42.7169 25.1099 42.6607 25.0537 42.6626 24.9838L42.8294 7.66779Z" fill="white"/>
<path d="M49.5778 28.0234H55.7694C56.008 28.0234 56.202 27.8294 56.202 27.5908C56.202 27.3523 56.008 27.1583 55.7694 27.1583H49.5778C49.3392 27.1583 49.1452 27.3523 49.1452 27.5908C49.1452 27.8294 49.3392 28.0234 49.5778 28.0234Z" fill="white"/>
<path d="M50.1151 26.491C50.1151 26.7296 50.3091 26.9236 50.5477 26.9236H54.753C54.9916 26.9236 55.1856 26.7296 55.1856 26.491C55.1856 26.2524 54.9916 26.0584 54.753 26.0584H50.5477C50.3091 26.0584 50.1151 26.2524 50.1151 26.491Z" fill="white"/>
<path d="M56.1787 5.09569C56.1787 4.85711 55.9847 4.66313 55.7462 4.66313H49.5545C49.3159 4.66313 49.1219 4.85711 49.1219 5.09569C49.1219 5.33428 49.3159 5.52825 49.5545 5.52825H55.7462C55.9847 5.52825 56.1787 5.33428 56.1787 5.09569Z" fill="white"/>
<path d="M54.7646 5.76296H50.5593C50.3207 5.76296 50.1267 5.95694 50.1267 6.19552C50.1267 6.43411 50.3207 6.62809 50.5593 6.62809H54.7646C55.0032 6.62809 55.1972 6.43411 55.1972 6.19552C55.1972 5.95694 55.0032 5.76296 54.7646 5.76296Z" fill="white"/>
<path d="M54.6929 25.8393C54.8306 25.8393 54.9392 25.7268 54.9353 25.589L54.4213 7.10138C54.4174 6.95978 54.301 6.84728 54.1594 6.84728H51.0539C50.9104 6.84728 50.794 6.96172 50.7921 7.10332L50.3886 25.591C50.3867 25.7268 50.4953 25.8393 50.6311 25.8393H54.6929ZM53.7055 7.5417C53.7754 7.5417 53.8316 7.59602 53.8336 7.66585L54.0004 24.9819C54.0004 25.0517 53.9461 25.108 53.8762 25.1099C53.8064 25.1119 53.7502 25.0556 53.7482 24.9858L53.5814 7.66973C53.5814 7.5999 53.6357 7.54364 53.7055 7.5417ZM52.5301 7.66779C52.5301 7.59796 52.5863 7.5417 52.6561 7.5417C52.726 7.5417 52.7822 7.59796 52.7822 7.66779V24.9838C52.7822 25.0537 52.726 25.1099 52.6561 25.1099C52.5863 25.1099 52.5301 25.0537 52.5301 24.9838V7.66973V7.66779ZM51.4787 7.66779C51.4787 7.59796 51.5369 7.5417 51.6067 7.54364C51.6766 7.54364 51.7328 7.60184 51.7309 7.67167L51.5641 24.9877C51.5641 25.0575 51.5059 25.1138 51.4361 25.1119C51.3662 25.1119 51.31 25.0537 51.3119 24.9838L51.4787 7.66779Z" fill="white"/>
<path d="M5.25 44.1719V47.1406C5.25 47.7135 5.28385 48.0755 5.35156 48.2266C5.42448 48.3724 5.54948 48.4896 5.72656 48.5781C5.90365 48.6667 6.23438 48.7109 6.71875 48.7109V49H1.29688V48.7109C1.78646 48.7109 2.11719 48.6667 2.28906 48.5781C2.46615 48.4844 2.58854 48.3646 2.65625 48.2188C2.72917 48.0729 2.76562 47.7135 2.76562 47.1406V40.2656C2.76562 39.6927 2.72917 39.3333 2.65625 39.1875C2.58854 39.0365 2.46615 38.9167 2.28906 38.8281C2.11198 38.7396 1.78125 38.6953 1.29688 38.6953V38.4062H6.21875C7.5 38.4062 8.4375 38.4948 9.03125 38.6719C9.625 38.849 10.1094 39.1771 10.4844 39.6562C10.8594 40.1302 11.0469 40.6875 11.0469 41.3281C11.0469 42.1094 10.7656 42.7552 10.2031 43.2656C9.84375 43.5885 9.34115 43.8307 8.69531 43.9922L11.2422 47.5781C11.5755 48.0417 11.8125 48.3307 11.9531 48.4453C12.1667 48.6068 12.4141 48.6953 12.6953 48.7109V49H9.35938L5.94531 44.1719H5.25ZM5.25 38.9766V43.6172H5.69531C6.41927 43.6172 6.96094 43.5521 7.32031 43.4219C7.67969 43.2865 7.96094 43.0469 8.16406 42.7031C8.3724 42.3542 8.47656 41.901 8.47656 41.3438C8.47656 40.5365 8.28646 39.9401 7.90625 39.5547C7.53125 39.1693 6.92448 38.9766 6.08594 38.9766H5.25ZM16.9219 39.0156V43.3281H17.1328C17.8047 43.3281 18.2917 43.1172 18.5938 42.6953C18.8958 42.2734 19.0885 41.651 19.1719 40.8281H19.4688V46.375H19.1719C19.1094 45.7708 18.9766 45.276 18.7734 44.8906C18.5755 44.5052 18.3438 44.2474 18.0781 44.1172C17.8125 43.9818 17.4271 43.9141 16.9219 43.9141V46.8984C16.9219 47.4818 16.9453 47.8385 16.9922 47.9688C17.0443 48.099 17.138 48.2057 17.2734 48.2891C17.4089 48.3724 17.6276 48.4141 17.9297 48.4141H18.5625C19.5521 48.4141 20.3438 48.1849 20.9375 47.7266C21.5365 47.2682 21.9661 46.5703 22.2266 45.6328H22.5156L22.0391 49H12.8828V48.7109H13.2344C13.5417 48.7109 13.7891 48.6562 13.9766 48.5469C14.112 48.474 14.2161 48.349 14.2891 48.1719C14.3464 48.0469 14.375 47.7188 14.375 47.1875V40.2188C14.375 39.7396 14.362 39.4453 14.3359 39.3359C14.2839 39.1536 14.1875 39.013 14.0469 38.9141C13.849 38.7682 13.5781 38.6953 13.2344 38.6953H12.8828V38.4062H21.75V41.5391H21.4531C21.3021 40.7734 21.0885 40.224 20.8125 39.8906C20.5417 39.5573 20.1562 39.3125 19.6562 39.1562C19.3646 39.0625 18.8177 39.0156 18.0156 39.0156H16.9219ZM29.8906 45.9844H26.1484L25.7031 47.0156C25.5573 47.3594 25.4844 47.6432 25.4844 47.8672C25.4844 48.1641 25.6042 48.3828 25.8438 48.5234C25.9844 48.6068 26.3307 48.6693 26.8828 48.7109V49H23.3594V48.7109C23.7396 48.6536 24.0521 48.4974 24.2969 48.2422C24.5417 47.9818 24.8438 47.4479 25.2031 46.6406L28.9922 38.1875H29.1406L32.9609 46.875C33.3255 47.6979 33.625 48.2161 33.8594 48.4297C34.0365 48.5911 34.2865 48.6849 34.6094 48.7109V49H29.4844V48.7109H29.6953C30.1068 48.7109 30.3958 48.6536 30.5625 48.5391C30.6771 48.4557 30.7344 48.3359 30.7344 48.1797C30.7344 48.0859 30.7188 47.9896 30.6875 47.8906C30.6771 47.8438 30.599 47.6484 30.4531 47.3047L29.8906 45.9844ZM29.625 45.4062L28.0469 41.7578L26.4219 45.4062H29.625ZM44.8984 45.2812L44.5 49H35.0938V48.7109H35.4453C35.7526 48.7109 36 48.6562 36.1875 48.5469C36.3229 48.474 36.4271 48.349 36.5 48.1719C36.5573 48.0469 36.5859 47.7188 36.5859 47.1875V40.2188C36.5859 39.6771 36.5573 39.3385 36.5 39.2031C36.4427 39.0677 36.3255 38.9505 36.1484 38.8516C35.9766 38.7474 35.7422 38.6953 35.4453 38.6953H35.0938V38.4062H40.7422V38.6953H40.2812C39.974 38.6953 39.7266 38.75 39.5391 38.8594C39.4036 38.9323 39.2969 39.0573 39.2188 39.2344C39.1615 39.3594 39.1328 39.6875 39.1328 40.2188V46.9688C39.1328 47.5104 39.1641 47.8568 39.2266 48.0078C39.2891 48.1536 39.4115 48.263 39.5938 48.3359C39.724 48.3828 40.0391 48.4062 40.5391 48.4062H41.4219C41.9844 48.4062 42.4531 48.3073 42.8281 48.1094C43.2031 47.9115 43.526 47.599 43.7969 47.1719C44.0729 46.7448 44.3333 46.1146 44.5781 45.2812H44.8984ZM50.4141 46.1328H45.8594V44.5156H50.4141V46.1328ZM60.8906 38.4062V41.2734H60.6094C60.4427 40.612 60.2578 40.138 60.0547 39.8516C59.8516 39.5599 59.5729 39.3281 59.2188 39.1562C59.0208 39.0625 58.6745 39.0156 58.1797 39.0156H57.3906V47.1875C57.3906 47.7292 57.4193 48.0677 57.4766 48.2031C57.5391 48.3385 57.6562 48.4583 57.8281 48.5625C58.0052 48.6615 58.2448 48.7109 58.5469 48.7109H58.8984V49H53.3516V48.7109H53.7031C54.0104 48.7109 54.2578 48.6562 54.4453 48.5469C54.5807 48.474 54.6875 48.349 54.7656 48.1719C54.8229 48.0469 54.8516 47.7188 54.8516 47.1875V39.0156H54.0859C53.3724 39.0156 52.8542 39.1667 52.5312 39.4688C52.0781 39.8906 51.7917 40.4922 51.6719 41.2734H51.375V38.4062H60.8906ZM67.3516 38.2578C69.0391 38.1953 70.4089 38.6875 71.4609 39.7344C72.5182 40.7812 73.0469 42.0911 73.0469 43.6641C73.0469 45.0078 72.6536 46.1901 71.8672 47.2109C70.8255 48.5651 69.3542 49.2422 67.4531 49.2422C65.5469 49.2422 64.0729 48.5964 63.0312 47.3047C62.2083 46.2839 61.7969 45.0729 61.7969 43.6719C61.7969 42.099 62.3307 40.7891 63.3984 39.7422C64.4714 38.6901 65.7891 38.1953 67.3516 38.2578ZM67.4453 38.7578C66.4766 38.7578 65.7396 39.2526 65.2344 40.2422C64.8229 41.0547 64.6172 42.2214 64.6172 43.7422C64.6172 45.5495 64.9349 46.8854 65.5703 47.75C66.013 48.3542 66.6328 48.6562 67.4297 48.6562C67.9661 48.6562 68.4141 48.526 68.7734 48.2656C69.2318 47.9323 69.5885 47.401 69.8438 46.6719C70.099 45.9375 70.2266 44.9818 70.2266 43.8047C70.2266 42.4036 70.0964 41.3568 69.8359 40.6641C69.5755 39.9661 69.2422 39.474 68.8359 39.1875C68.4349 38.901 67.9714 38.7578 67.4453 38.7578ZM80.2891 42.4609L84.0156 47.125C84.5417 47.7812 84.9948 48.2266 85.375 48.4609C85.651 48.6276 85.9427 48.7109 86.25 48.7109V49H80.7344V48.7109C81.0833 48.6797 81.3073 48.625 81.4062 48.5469C81.5104 48.4688 81.5625 48.3724 81.5625 48.2578C81.5625 48.0391 81.3229 47.6276 80.8438 47.0234L78.4141 43.9688L78.0234 44.2969V47.1875C78.0234 47.7396 78.0547 48.0833 78.1172 48.2188C78.1797 48.3542 78.2995 48.4714 78.4766 48.5703C78.6536 48.6641 78.9375 48.7109 79.3281 48.7109V49H73.9844V48.7109H74.3359C74.6432 48.7109 74.8906 48.6562 75.0781 48.5469C75.2135 48.474 75.3177 48.349 75.3906 48.1719C75.4479 48.0469 75.4766 47.7188 75.4766 47.1875V40.2188C75.4766 39.6771 75.4479 39.3385 75.3906 39.2031C75.3333 39.0677 75.2161 38.9505 75.0391 38.8516C74.8672 38.7474 74.6328 38.6953 74.3359 38.6953H73.9844V38.4062H79.2578V38.6953C78.8984 38.6953 78.625 38.7474 78.4375 38.8516C78.3021 38.9245 78.1953 39.0469 78.1172 39.2188C78.0547 39.349 78.0234 39.6823 78.0234 40.2188V43.5156L81.9531 40.3359C82.5 39.8932 82.7734 39.5391 82.7734 39.2734C82.7734 39.0755 82.6615 38.9193 82.4375 38.8047C82.3229 38.7474 82.0391 38.7109 81.5859 38.6953V38.4062H85.7188V38.6953C85.349 38.7214 85.0573 38.7891 84.8438 38.8984C84.6354 39.0026 84.151 39.362 83.3906 39.9766L80.2891 42.4609Z" fill="white"/>
</g>
<defs>
<clipPath id="clip0_1_54">
<rect width="88.5122" height="60" fill="white"/>
</clipPath>
</defs>
</svg>

<svg width="89" height="60" fill="none" xmlns="http://www.w3.org/2000/svg"><g clip-path="url(#a)" fill="#fff"><path d="M59.736 30.227H28.268a.198.198 0 0 0-.198.198v2.585c0 .11.088.198.198.198h31.468c.11 0 .198-.088.198-.197v-2.586a.198.198 0 0 0-.198-.198zM58.438 28.28H29.562a.198.198 0 0 0-.198.197v1.292c0 .11.088.198.198.198h28.876c.11 0 .198-.089.198-.198v-1.292a.198.198 0 0 0-.198-.198zM57.154 2.974H30.93a.202.202 0 0 0-.202.201v1.071c0 .111.09.202.202.202h26.225c.112 0 .202-.09.202-.202v-1.07a.202.202 0 0 0-.202-.202zM30.537 2.675c.03.04.076.066.126.066h26.755c.05 0 .097-.025.126-.066L59.13.334a.215.215 0 0 0-.178-.336H29.129a.215.215 0 0 0-.178.336l1.584 2.34h.002zM32.316 28.023h6.192a.433.433 0 0 0 0-.865h-6.192a.433.433 0 0 0 0 .865zM32.853 26.491c0 .239.194.433.433.433h4.205a.433.433 0 0 0 0-.866h-4.205a.433.433 0 0 0-.433.433zM38.917 5.096a.433.433 0 0 0-.433-.433h-6.191a.433.433 0 0 0 0 .865h6.191a.433.433 0 0 0 .433-.432zM37.503 5.763h-4.205a.433.433 0 0 0 0 .865h4.205a.433.433 0 0 0 0-.865zM37.431 25.84a.242.242 0 0 0 .243-.251L37.16 7.101a.262.262 0 0 0-.262-.254h-3.106a.26.26 0 0 0-.262.256l-.403 18.488a.244.244 0 0 0 .242.248h4.062zm-.987-18.298c.07 0 .126.054.128.124l.167 17.316c0 .07-.055.126-.124.128a.127.127 0 0 1-.129-.124L36.32 7.67c0-.07.054-.126.124-.128zm-1.176.126a.126.126 0 1 1 .252 0v17.316a.126.126 0 1 1-.252 0V7.668zm-1.051 0c0-.07.058-.126.128-.124.07 0 .126.058.124.128l-.167 17.316c0 .07-.058.126-.128.124a.126.126 0 0 1-.124-.128l.167-17.316zM40.928 28.023h6.192a.433.433 0 0 0 0-.865H40.93a.433.433 0 0 0 0 .865zM41.466 26.491c0 .239.194.433.432.433h4.206a.433.433 0 0 0 0-.866h-4.206a.433.433 0 0 0-.432.433zM47.53 5.096a.433.433 0 0 0-.433-.433h-6.192a.433.433 0 0 0 0 .865h6.192a.433.433 0 0 0 .432-.432zM46.115 5.763H41.91a.433.433 0 0 0 0 .865h4.205a.433.433 0 0 0 0-.865zM46.044 25.84a.242.242 0 0 0 .242-.251l-.514-18.488a.262.262 0 0 0-.262-.254h-3.105a.26.26 0 0 0-.262.256l-.404 18.488a.244.244 0 0 0 .243.248h4.062zm-.988-18.298c.07 0 .126.054.128.124l.167 17.316c0 .07-.054.126-.124.128a.127.127 0 0 1-.128-.124L44.932 7.67c0-.07.054-.126.124-.128zm-1.175.126a.126.126 0 1 1 .252 0v17.316a.126.126 0 1 1-.252 0V7.668zm-1.052 0c0-.07.059-.126.129-.124.07 0 .126.058.124.128l-.167 17.316c0 .07-.058.126-.128.124a.126.126 0 0 1-.124-.128l.166-17.316zM49.578 28.023h6.191a.433.433 0 0 0 0-.865h-6.191a.433.433 0 0 0 0 .865zM50.115 26.491c0 .239.194.433.433.433h4.205a.433.433 0 0 0 0-.866h-4.205a.433.433 0 0 0-.433.433zM56.179 5.096a.433.433 0 0 0-.433-.433h-6.192a.433.433 0 0 0 0 .865h6.192a.433.433 0 0 0 .433-.432zM54.765 5.763h-4.206a.433.433 0 0 0 0 .865h4.206a.433.433 0 0 0 0-.865zM54.693 25.84a.242.242 0 0 0 .242-.251l-.514-18.488a.262.262 0 0 0-.262-.254h-3.105a.26.26 0 0 0-.262.256l-.403 18.488a.244.244 0 0 0 .242.248h4.062zm-.987-18.298c.07 0 .126.054.128.124L54 24.982a.126.126 0 1 1-.252.004L53.581 7.67c0-.07.055-.126.124-.128zm-1.176.126a.126.126 0 1 1 .252 0v17.316a.126.126 0 1 1-.252 0V7.668zm-1.051 0c0-.07.058-.126.128-.124.07 0 .126.058.124.128l-.167 17.316c0 .07-.058.126-.128.124a.125.125 0 0 1-.124-.128l.167-17.316zM5.25 44.172v2.969c0 .573.034.934.102 1.086a.798.798 0 0 0 .375.351c.177.089.507.133.992.133V49H1.297v-.29c.49 0 .82-.043.992-.132a.792.792 0 0 0 .367-.36c.073-.145.11-.505.11-1.077v-6.875c0-.573-.037-.933-.11-1.078a.748.748 0 0 0-.367-.36c-.177-.088-.508-.133-.992-.133v-.289h4.922c1.281 0 2.218.089 2.812.266a2.825 2.825 0 0 1 1.453.984c.375.474.563 1.032.563 1.672 0 .781-.281 1.427-.844 1.938-.36.323-.862.565-1.508.726l2.547 3.586c.333.464.57.753.711.867.214.162.461.25.742.266V49H9.36l-3.414-4.828H5.25zm0-5.195v4.64h.445c.724 0 1.266-.065 1.625-.195.36-.136.64-.375.844-.719.208-.349.313-.802.313-1.36 0-.807-.19-1.403-.57-1.788-.376-.386-.983-.578-1.821-.578H5.25zm11.672.039v4.312h.21c.673 0 1.16-.21 1.462-.633.302-.422.494-1.044.578-1.867h.297v5.547h-.297c-.063-.604-.195-1.099-.399-1.484-.197-.386-.43-.644-.695-.774-.265-.135-.65-.203-1.156-.203v2.984c0 .584.023.94.07 1.07.052.131.146.238.281.321.136.083.355.125.657.125h.633c.99 0 1.78-.23 2.375-.687.599-.459 1.028-1.157 1.289-2.094h.289L22.039 49h-9.156v-.29h.351c.308 0 .555-.054.743-.163a.712.712 0 0 0 .312-.375c.057-.125.086-.453.086-.984v-6.97c0-.478-.013-.773-.04-.882a.747.747 0 0 0-.288-.422c-.198-.146-.469-.219-.813-.219h-.351v-.289h8.867v3.133h-.297c-.15-.766-.364-1.315-.64-1.648-.271-.334-.657-.578-1.157-.735-.291-.093-.838-.14-1.64-.14h-1.094zm12.969 6.968h-3.743l-.445 1.032c-.146.343-.219.627-.219.851 0 .297.12.516.36.656.14.084.487.146 1.039.188V49h-3.524v-.29c.38-.056.693-.213.938-.468.245-.26.547-.794.906-1.601l3.79-8.453h.148l3.82 8.687c.364.823.664 1.341.898 1.555.177.161.427.255.75.28V49h-5.125v-.29h.211c.412 0 .7-.056.867-.17a.417.417 0 0 0 .172-.36.956.956 0 0 0-.047-.29 7.271 7.271 0 0 0-.234-.585l-.562-1.32zm-.266-.578-1.578-3.648-1.625 3.648h3.203zm15.273-.125L44.5 49h-9.406v-.29h.351c.308 0 .555-.054.742-.163a.711.711 0 0 0 .313-.375c.057-.125.086-.453.086-.984v-6.97c0-.54-.029-.88-.086-1.015-.057-.135-.175-.253-.352-.351-.171-.105-.406-.157-.703-.157h-.351v-.289h5.648v.29h-.46c-.308 0-.555.054-.743.163a.746.746 0 0 0-.32.375c-.058.125-.086.453-.086.985v6.75c0 .541.031.888.094 1.039.062.146.184.255.367.328.13.047.445.07.945.07h.883c.562 0 1.031-.099 1.406-.297.375-.198.698-.51.969-.937.276-.427.536-1.057.781-1.89h.32zm5.516.852H45.86v-1.617h4.555v1.617zm10.477-7.727v2.867h-.282c-.166-.661-.351-1.135-.554-1.421a2.123 2.123 0 0 0-.836-.696c-.198-.093-.544-.14-1.04-.14h-.788v8.172c0 .541.028.88.086 1.015.062.136.18.255.351.36.177.098.417.148.719.148h.351V49h-5.546v-.29h.351c.307 0 .555-.054.742-.163a.747.747 0 0 0 .32-.375c.058-.125.087-.453.087-.984v-8.172h-.766c-.714 0-1.232.15-1.555.453-.453.422-.74 1.023-.86 1.804h-.296v-2.867h9.516zm6.46-.148c1.688-.063 3.058.43 4.11 1.476 1.057 1.047 1.586 2.357 1.586 3.93 0 1.344-.393 2.526-1.18 3.547-1.041 1.354-2.513 2.031-4.414 2.031-1.906 0-3.38-.646-4.422-1.937-.823-1.021-1.234-2.232-1.234-3.633 0-1.573.534-2.883 1.601-3.93 1.073-1.052 2.391-1.547 3.954-1.484zm.094.5c-.968 0-1.705.495-2.21 1.484-.412.813-.618 1.98-.618 3.5 0 1.808.318 3.143.953 4.008.443.604 1.063.906 1.86.906.536 0 .984-.13 1.343-.39.459-.334.816-.865 1.07-1.594.256-.734.384-1.69.384-2.867 0-1.401-.13-2.448-.391-3.14-.26-.699-.594-1.191-1-1.477a2.33 2.33 0 0 0-1.39-.43zM80.29 42.46l3.727 4.664c.526.656.979 1.102 1.359 1.336.276.167.568.25.875.25V49h-5.516v-.29c.35-.03.573-.085.672-.163a.35.35 0 0 0 .156-.29c0-.218-.24-.63-.718-1.234l-2.43-3.054-.39.328v2.89c0 .553.03.896.093 1.032.063.135.182.252.36.351.177.094.46.14.851.14V49h-5.344v-.29h.352c.307 0 .555-.054.742-.163a.711.711 0 0 0 .313-.375c.057-.125.086-.453.086-.984v-6.97c0-.54-.03-.88-.086-1.015-.058-.135-.175-.253-.352-.351-.172-.105-.406-.157-.703-.157h-.352v-.289h5.274v.29c-.36 0-.633.051-.82.156a.75.75 0 0 0-.32.367c-.063.13-.095.463-.095 1v3.297l3.93-3.18c.547-.443.82-.797.82-1.063 0-.198-.111-.354-.335-.468-.115-.058-.399-.094-.852-.11v-.289h4.133v.29c-.37.025-.662.093-.875.202-.209.105-.693.464-1.453 1.079l-3.102 2.484z"/></g><defs><clipPath id="a"><path fill="#fff" d="M0 0h88.512v60H0z"/></clipPath></defs></svg>
